Numix/16/status/indicator-keyboard-Pt.svg

<?xml version="1.0" encoding="UTF-8" standalone="no"?>
<svg
   xmlns:dc="http://purl.org/dc/elements/1.1/"
   xmlns:cc="http://creativecommons.org/ns#"
   xmlns:rdf="http://www.w3.org/1999/02/22-rdf-syntax-ns#"
   xmlns:svg="http://www.w3.org/2000/svg"
   xmlns="http://www.w3.org/2000/svg"
   xmlns:sodipodi="http://sodipodi.sourceforge.net/DTD/sodipodi-0.dtd"
   xmlns:inkscape="http://www.inkscape.org/namespaces/inkscape"
   viewBox="0 0 16 16"
   id="svg2"
   version="1.1"
   inkscape:version="0.91 r13725"
   sodipodi:docname="indicator-keyboard-Pt.svg">
  <metadata
     id="metadata13">
    <rdf:RDF>
      <cc:Work
         rdf:about="">
        <dc:format>image/svg+xml</dc:format>
        <dc:type
           rdf:resource="http://purl.org/dc/dcmitype/StillImage" />
      </cc:Work>
    </rdf:RDF>
  </metadata>
  <defs
     id="defs11" />
  <sodipodi:namedview
     pagecolor="#ffffff"
     bordercolor="#666666"
     borderopacity="1"
     objecttolerance="10"
     gridtolerance="10"
     guidetolerance="10"
     inkscape:pageopacity="0"
     inkscape:pageshadow="2"
     inkscape:window-width="640"
     inkscape:window-height="480"
     id="namedview9"
     showgrid="false"
     inkscape:zoom="14.75"
     inkscape:cx="8"
     inkscape:cy="8"
     inkscape:window-x="65"
     inkscape:window-y="24"
     inkscape:window-maximized="0"
     inkscape:current-layer="svg2" />
  <path
     style="fill:#ececec;fill-opacity:1"
     d="M 1.5996094 0 C 0.71320937 2.9605947e-16 0 0.71320937 0 1.5996094 L 0 14.400391 C 2.9605947e-16 15.286791 0.71320937 16 1.5996094 16 L 14.400391 16 C 15.286791 16 16 15.286791 16 14.400391 L 16 1.5996094 C 16 0.71320937 15.286791 0 14.400391 0 L 1.5996094 0 z M 5.6289062 4.8046875 C 6.5109063 4.8046875 7.1676094 4.9725938 7.5996094 5.3085938 C 8.0316094 5.6445938 8.2480469 6.1222344 8.2480469 6.7402344 C 8.2480469 7.0942344 8.1845938 7.3964375 8.0585938 7.6484375 C 7.9325937 7.8944375 7.7535313 8.0959531 7.5195312 8.2519531 C 7.2855312 8.4019531 6.99825 8.5139375 6.65625 8.5859375 C 6.32025 8.6519375 5.9377188 8.6835938 5.5117188 8.6835938 L 4.6660156 8.6835938 L 4.6660156 11.095703 L 4.0546875 11.095703 L 4.0546875 4.9765625 C 4.2706875 4.9165625 4.5225469 4.8736094 4.8105469 4.8496094 C 5.1045469 4.8196094 5.3769063 4.8046875 5.6289062 4.8046875 z M 9.8945312 4.9667969 L 9.8945312 6.4433594 L 11.748047 6.4433594 L 11.748047 6.9375 L 9.8945312 6.9375 L 9.8945312 9.4121094 C 9.8945312 9.6761094 9.9150313 9.8925467 9.9570312 10.060547 C 10.005031 10.222547 10.070297 10.349453 10.154297 10.439453 C 10.238297 10.529453 10.340937 10.589141 10.460938 10.619141 C 10.580938 10.649141 10.713422 10.664063 10.857422 10.664062 C 11.103422 10.664062 11.301172 10.636031 11.451172 10.582031 C 11.601172 10.522031 11.716781 10.469875 11.800781 10.421875 L 11.945312 10.90625 C 11.861312 10.96025 11.713906 11.023703 11.503906 11.095703 C 11.293906 11.161703 11.066312 11.195312 10.820312 11.195312 C 10.532313 11.195312 10.289797 11.159891 10.091797 11.087891 C 9.8997967 11.009891 9.7430469 10.894141 9.6230469 10.744141 C 9.5090469 10.588141 9.4288594 10.397922 9.3808594 10.169922 C 9.3328594 9.9419217 9.3085938 9.671375 9.3085938 9.359375 L 9.3085938 5.0742188 L 9.8945312 4.9667969 z M 5.65625 5.3359375 C 5.42825 5.3359375 5.2342656 5.3452812 5.0722656 5.3632812 C 4.9162656 5.3752813 4.7800156 5.3864375 4.6660156 5.3984375 L 4.6660156 8.1523438 L 5.4394531 8.1523438 C 5.7694531 8.1523438 6.0680313 8.1356094 6.3320312 8.0996094 C 6.6020312 8.0576094 6.829625 7.9848125 7.015625 7.8828125 C 7.207625 7.7748125 7.3550313 7.6274062 7.4570312 7.4414062 C 7.5590312 7.2554063 7.609375 7.0184687 7.609375 6.7304688 C 7.609375 6.4544688 7.5515 6.226875 7.4375 6.046875 C 7.3295 5.866875 7.1840469 5.7250469 6.9980469 5.6230469 C 6.8180469 5.5150469 6.6109531 5.4404375 6.3769531 5.3984375 C 6.1429531 5.3564375 5.90225 5.3359375 5.65625 5.3359375 z "
     id="path4" />
</svg>

<svg xmlns="http://www.w3.org/2000/svg" viewBox="0 0 16 16">
 <path d="m 1.6 0 c -0.886 0 -1.6 0.713 -1.6 1.6 l 0 12.801 c 0 0.886 0.713 1.6 1.6 1.6 l 12.801 0 c 0.886 0 1.6 -0.713 1.6 -1.6 l 0 -12.801 c 0 -0.886 -0.713 -1.6 -1.6 -1.6 l -12.801 0 z m 4.03 4.805 c 0.882 0 1.539 0.168 1.971 0.504 c 0.432 0.336 0.648 0.814 0.648 1.432 c 0 0.354 -0.063 0.656 -0.189 0.908 c -0.126 0.246 -0.305 0.448 -0.539 0.604 c -0.234 0.15 -0.521 0.262 -0.863 0.334 c -0.336 0.066 -0.719 0.098 -1.145 0.098 l -0.846 0 l 0 2.412 l -0.611 0 l 0 -6.119 c 0.216 -0.06 0.468 -0.103 0.756 -0.127 c 0.294 -0.03 0.566 -0.045 0.818 -0.045 z m 4.266 0.162 l 0 1.477 l 1.854 0 l 0 0.494 l -1.854 0 l 0 2.475 c 0 0.264 0.021 0.48 0.063 0.648 c 0.048 0.162 0.113 0.289 0.197 0.379 c 0.084 0.09 0.187 0.15 0.307 0.18 c 0.12 0.03 0.252 0.045 0.396 0.045 c 0.246 0 0.444 -0.028 0.594 -0.082 c 0.15 -0.06 0.266 -0.112 0.35 -0.16 l 0.145 0.484 c -0.084 0.054 -0.231 0.117 -0.441 0.189 c -0.21 0.066 -0.438 0.1 -0.684 0.1 c -0.288 0 -0.531 -0.035 -0.729 -0.107 c -0.192 -0.078 -0.349 -0.194 -0.469 -0.344 c -0.114 -0.156 -0.194 -0.346 -0.242 -0.574 c -0.048 -0.228 -0.072 -0.499 -0.072 -0.811 l 0 -4.285 l 0.586 -0.107 z m -4.238 0.369 c -0.228 0 -0.422 0.009 -0.584 0.027 c -0.156 0.012 -0.292 0.023 -0.406 0.035 l 0 2.754 l 0.773 0 c 0.33 0 0.629 -0.017 0.893 -0.053 c 0.27 -0.042 0.498 -0.115 0.684 -0.217 c 0.192 -0.108 0.339 -0.255 0.441 -0.441 c 0.102 -0.186 0.152 -0.423 0.152 -0.711 c 0 -0.276 -0.058 -0.504 -0.172 -0.684 c -0.108 -0.18 -0.253 -0.322 -0.439 -0.424 c -0.18 -0.108 -0.387 -0.183 -0.621 -0.225 c -0.234 -0.042 -0.475 -0.063 -0.721 -0.063 z" style="fill:#ececec;fill-opacity:1"/>
</svg>
